img/svg/successfully-changed.svg

<svg width="96" height="96" viewBox="0 0 96 96" fill="none" xmlns="http://www.w3.org/2000/svg"><circle cx="48" cy="48" r="48" fill="#4C0" fill-opacity=".05"/><path fill-rule="evenodd" clip-rule="evenodd" d="M52 34c0 2.2-1.78 4-4 4-2.2 0-4-1.8-4-4 0-.76.2-1.46.58-2.06L48 26l3.42 5.94c.38.6.58 1.3.58 2.06zm-2 10h10c3.32 0 6 2.68 6 6v18c0 1.1-.9 2-2 2H32c-1.1 0-2-.9-2-2V50c0-3.32 2.68-6 6-6h10v-4h4v4zM34 66v-6c1.8-.02 3.52-.74 4.8-2.02l2.18-2.14 2.14 2.14c2.62 2.62 7.18 2.6 9.78 0l2.16-2.14 2.14 2.14c1.28 1.28 3 2 4.8 2.02v6H34zm25.3-10.14c.72.74 1.68 1.12 2.7 1.14v-7c0-1.1-.9-2-2-2H36c-1.1 0-2 .9-2 2v7c1.02-.02 1.98-.42 2.68-1.14l4.28-4.26 4.26 4.26c1.48 1.48 4.06 1.48 5.54 0l4.28-4.26 4.26 4.26z" fill="#4C0"/></svg>

<svg width="96" height="96" viewBox="0 0 96 96" fill="none" xmlns="http://www.w3.org/2000/svg">
<circle cx="48" cy="48" r="48" fill="#44CC00" fill-opacity="0.05"/>
<path fill-rule="evenodd" clip-rule="evenodd" d="M52 34C52 36.2 50.22 38 48 38C45.8 38 44 36.2 44 34C44 33.24 44.2 32.54 44.58 31.94L48 26L51.42 31.94C51.8 32.54 52 33.24 52 34ZM50 44H60C63.32 44 66 46.68 66 50V68C66 69.1 65.1 70 64 70H32C30.9 70 30 69.1 30 68V50C30 46.68 32.68 44 36 44H46V40H50V44ZM34 66V60C35.8 59.98 37.52 59.26 38.8 57.98L40.98 55.84L43.12 57.98C45.74 60.6 50.3 60.58 52.9 57.98L55.06 55.84L57.2 57.98C58.48 59.26 60.2 59.98 62 60V66H34ZM59.3 55.86C60.02 56.6 60.98 56.98 62 57V50C62 48.9 61.1 48 60 48H36C34.9 48 34 48.9 34 50V57C35.02 56.98 35.98 56.58 36.68 55.86L40.96 51.6L45.22 55.86C46.7 57.34 49.28 57.34 50.76 55.86L55.04 51.6L59.3 55.86Z" fill="#44CC00"/>
</svg>
